X:10441
T:Mason's Apron
R:reel
C:Trad.
M:C
L:1/8
K:A
ed |\
"A"c2A2 ABAF | EFAB dcBA | "Bm" d2B2 BcBA | "Bm"Bcde "E7" gfed |
"A"c2A2 ABAF | EFAB dcBA | "Bm" Bcde fefa | "E7"edcB "A"A2 :|
ed |\
"A"cAeA fAeA | cAeA fedc | "Bm" dBfB gBfB | "Bm"dBfB "E7"gfed |
"A"cAeA fAeA | cAeA fedc | "E7" dcde "D" fefa | "E7"edcB "A"A2 :|
